X:1
T:Taunton, 87.87.77
T:Charles C. Treat, 1888
T:Taunton, 87.87.77
T:Public Domain
C:Charles C. Treat, 1888
Z:Public Domain
%%score ( 1 2 ) ( 3 4 )
L:1/8
M:4/4
K:F
V:1 treble 
V:2 treble 
V:3 bass 
V:4 bass 
V:1
 [Ac]3 [Ac] [Af]2 [FA]2 | [FB]2 [Fd]2 [Fc]2 [FA]2 | [EG]3 [FA] [GB]2 [Bd]2 | [Ac]3 [GB] [FA]4 | %4
 [Gc]3 [Gc] [Gd]2 [Gd]2 | [Ge]3 [Fd] [Ec]2 [EG]2 | [CA]3 [D=B] [Ec]2 [Fd]2 | [Ec]2 [D=B]2 [CA]4 | %8
 [Ec]3 [Ec] [Fc]2 [FA]2 | [FB]2 [Fc]2 [Fd]4 | [Fc]3 [FB] [FA]2 ([FB][FA]) | [EG]2 ([EG][EA]) F4 |] %12
V:2
 x8 | x8 | x8 | x8 | x8 | x8 | x8 | x8 | x8 | x8 | x8 | x4 F4 |] %12
V:3
 [F,C]3 [F,C] [F,C]2 [F,C]2 | [F,D]2 [F,B,]2 [F,A,]2 [F,C]2 | [C,C]3 [C,C] [C,C]2 [C,C]2 | %3
 [F,A,]3 [F,C] [F,C]4 | [E,C]3 [E,C] [G,=B,]2 [G,B,]2 | [C,C]3 [C,C] [C,C]2 [C,C]2 | %6
 [A,,A,]3 [A,,A,] [A,,A,]2 [D,A,]2 | [E,A,]2 [E,^G,]2 [A,,A,]4 | [B,C]3 [B,C] [A,C]2 (F,_E,) | %9
 [D,B,]2 [C,A,]2 [B,,B,]4 | [F,A,]3 [F,D] [F,C]2 ([F,D][F,C]) | [C,B,]2 ([C,B,][C,C]) [F,A,]4 |] %12
V:4
 x8 | x8 | x8 | x8 | x8 | x8 | x8 | x8 | x6 C2 | x8 | x8 | x8 |] %12

